web/ui/src/components/workflow/workflow-editor/svgs/no-param.svg

<svg height="56" viewBox="0 0 56 56" width="56" xmlns="http://www.w3.org/2000/svg"><g fill="none" fill-rule="evenodd"><path d="m0 0h56v56h-56z" fill="#000" fill-rule="nonzero" opacity="0"/><g fill="#f6fafe"><path d="m26.6073458 11.0696808c0 .7484817-.6122394 1.354424-1.3651415 1.354424h-5.4621429c-.3621423.0002444-.7095468-.1423362-.9657722-.3963696-.2559872-.2541236-.3999329-.598687-.4002392-.9580544 0-.7482657.6116412-1.35539509 1.3660658-1.35539509h5.4621428c.7528478-.00005397 1.3650872.60712939 1.3650872 1.35539509z"/><path d="m34.0415953 11.0696808c0 .7484817-.4303619 1.3544237-.9614224 1.3544237h-3.8423728c-.5316587 0-.9614224-.6064817-.9614224-1.3544237 0-.7482657.4297093-1.35539509.9614224-1.35539509h3.8423728c.5310605-.00005397.9614224.60712939.9614224 1.35539509z"/><path d="m42.3861023 16.5664441c0 .4195696-.1678243.8219716-.4667606 1.1186015s-.7043859.4631648-1.1270735.4629359h-15.7787022c-.8796454 0-1.5928553-.707949-1.5928553-1.5814834 0-.8731027.7132642-1.5811056 1.5928553-1.5811056h15.7787565c.4226325-.0002045.8280314.1662765 1.126988.4628088.2988136.2965672.4667918.6988036.4667918 1.1182428z"/><path d="m46.6345322 22.2137349c0 .83203-.6793355 1.5066782-1.5178207 1.5066782h-23.8199712c-.8382133 0-1.5175488-.6743243-1.5175488-1.5063544 0-.8317062.6793899-1.5063004 1.5175488-1.5063004h23.8194275c.8381589 0 1.5178207.6740544 1.5183644 1.5059766z"/><path d="m48 27.5608882c0 .4195044-.1677615.8218524-.4665199 1.1185666-.2987245.2967511-.7040374.4634586-1.1266617.4634023h-4.4008374c-.8802436 0-1.5935079-.7082726-1.5935079-1.5816991 0-.8735344.71321-1.581807 1.5935079-1.581807h4.4008374c.4224777 0 .8277193.1666651 1.1266617.4630785.2986559.2967381.4665199.6990093.4665199 1.1184587z"/><path d="m39.199739 27.5608882c0 .8739122-1.059783 1.5819689-2.3700623 1.5819689h-30.4613c-1.30794117 0-2.3683767-.7073551-2.3683767-1.5819689 0-.8735884 1.06038115-1.5815372 2.3683767-1.5815372h30.4613c1.3102793.000054 2.3700623.7080027 2.3700623 1.5815372z"/><path d="m29.7599231 33.8616572c0 .4940025-.1919091.9677973-.5335203 1.3173068-.3417988.349323-.8053864.5455738-1.2887739.5455738h-26.11534143c-.65092184-.0000718-1.25238633-.3549433-1.57792499-.9309954-.32581664-.5760846-.32581664-1.2861287 0-1.8622133.32538175-.5762561.92690874-.9312917 1.57792499-.9313291h26.11534143c.483243-.0000781.9467192.1960539 1.2884474.5452402.3418471.3490119.5338468.822596.5338468 1.316417zm23.382934 6.5786376c-.0003264 1.019079-.8084151 1.8450858-1.8056437 1.8454195h-21.7453179c-.9790546-.0260803-1.7591206-.8447468-1.7591206-1.8454195 0-1.0007283.780066-1.819228 1.7591206-1.8454196h21.7447738c.9971741.0005561 1.8055893.8263961 1.8061878 1.8454196z"/><path d="m49.830269 46.0001192c0 .3791846-.137844.7428249-.3832382 1.0108052-.2454938.2676242-.57809.4178297-.9247844.4176469h-24.3585554c-.7215885 0-1.3065481-.639544-1.3065481-1.4284521 0-.788908.5849596-1.4286906 1.3065481-1.4286906h24.35861c.7224076 0 1.307968.6394244 1.307968 1.4286906zm5.0268739 0c0 .7885499-.5846866 1.4280937-1.3062752 1.4284519h-1.0432835c-.7219162 0-1.3068759-.6395438-1.3068759-1.4284519 0-.788908.5849597-1.4286906 1.3068759-1.4286906h1.0432289c.7207694 0 1.3063298.6394244 1.3063298 1.4286906z"/></g><g transform="translate(14.508929 14.857143)"><path d="m4.01785714 3.9642857h20.08928576c.6026785 0 1.0044642.4017857 1.0044642 1.0044643v15.0669643h-22.09821423v-15.0669643c0-.60267857.4017857-1.0044643 1.00446427-1.0044643z" fill="#e2f1ff" fill-rule="nonzero"/><path d="m4.919643 0h18.285714v1.714286h-18.285714z" fill="#e2f1ff"/><path d="m1.50669643 10.9955357h6.328125l1.90848214 4.4196429h8.53794643l2.3102679-4.4196429h6.0267857c.8035714 0 1.5066964.703125 1.5066964 1.5066964v12.0535715c0 .8035714-.703125 1.5066964-1.5066964 1.5066964h-25.11160717c-.80357143 0-1.50669643-.703125-1.50669643-1.5066964v-12.0535715c.10044643-.8035714.703125-1.5066964 1.50669643-1.5066964z" fill="#fff" fill-rule="nonzero" stroke="#a5d2ff" stroke-width=".571429"/><path d="m4.919643 20h18.285714v1.714286h-18.285714z" fill="#edf6ff"/></g><path d="m25.2125714 24.5714286v-1.7897143h.0137143l1.224 1.7897143h.3908572v-2.448h-.4045715v1.7657143h-.0137143l-1.2102857-1.7657143h-.4011428v2.448zm3.1268572.048c.3222857 0 .5725714-.0822857.7508571-.2468572.1782857-.1691428.2674286-.4125714.2674286-.7302857v-1.5188571h-.4011429v1.5257143c0 .208-.0491428.3645714-.1474285.4697142-.1005715.1005715-.2571429.1508572-.4697143.1508572-.2171429 0-.3737143-.0502857-.4697143-.1508572-.0982857-.1005714-.1474286-.2571428-.1474286-.4697142v-1.5257143h-.4011428v1.5188571c0 .3177143.0902857.5622857.2708571.7337143.1737143.1622857.4228571.2434286.7474286.2434286zm3.2194285-.048v-.3428572h-1.3234285v-2.1051428h-.3977143v2.448zm2.0297143 0v-.3428572h-1.3234285v-2.1051428h-.3977143v2.448z" fill="#65a4e2" fill-rule="nonzero"/></g></svg>

<?xml version="1.0" encoding="UTF-8"?>
<svg width="56px" height="56px" viewBox="0 0 56 56" version="1.1" xmlns="http://www.w3.org/2000/svg" xmlns:xlink="http://www.w3.org/1999/xlink">
    <title>无数据 2</title>
    <g id="页面-1" stroke="none" stroke-width="1" fill="none" fill-rule="evenodd">
        <g id="建木CI-图形编辑器-最新样式" transform="translate(-713.000000, -482.000000)">
            <g id="无数据" transform="translate(713.000000, 482.000000)">
                <rect id="矩形" fill="#000000" fill-rule="nonzero" opacity="0" x="0" y="0" width="56" height="56"></rect>
                <path d="M26.6073458,11.0696808 C26.6073458,11.8181625 25.9951064,12.4241048 25.2422043,12.4241048 L19.7800614,12.4241048 C19.4179191,12.4243492 19.0705146,12.2817686 18.8142892,12.0277352 C18.558302,11.7736116 18.4143563,11.4290482 18.41405,11.0696808 C18.41405,10.3214151 19.0256912,9.71428571 19.7801158,9.71428571 L25.2422586,9.71428571 C25.9951064,9.71423174 26.6073458,10.3214151 26.6073458,11.0696808 L26.6073458,11.0696808 Z" id="路径" fill="#F6FAFE"></path>
                <path d="M34.0415953,11.0696808 C34.0415953,11.8181625 33.6112334,12.4241045 33.0801729,12.4241045 L29.2378001,12.4241045 C28.7061414,12.4241045 28.2763777,11.8176228 28.2763777,11.0696808 C28.2763777,10.3214151 28.706087,9.71428571 29.2378001,9.71428571 L33.0801729,9.71428571 C33.6112334,9.71423174 34.0415953,10.3214151 34.0415953,11.0696808 Z" id="路径" fill="#F6FAFE"></path>
                <path d="M42.3861023,16.5664441 C42.3861023,16.9860137 42.218278,17.3884157 41.9193417,17.6850456 C41.6204054,17.9816755 41.2149558,18.1482104 40.7922682,18.1479815 L25.013566,18.1479815 C24.1339206,18.1479815 23.4207107,17.4400325 23.4207107,16.5664981 C23.4207107,15.6933954 24.1339749,14.9853925 25.013566,14.9853925 L40.7923225,14.9853925 C41.214955,14.985188 41.6203539,15.151669 41.9193105,15.4482013 C42.2181241,15.7447685 42.3861023,16.1470049 42.3861023,16.5664441 L42.3861023,16.5664441 Z" id="路径" fill="#F6FAFE"></path>
                <path d="M46.6345322,22.2137349 C46.6345322,23.0457649 45.9551967,23.7204131 45.1167115,23.7204131 L21.2967403,23.7204131 C20.458527,23.7204131 19.7791915,23.0460888 19.7791915,22.2140587 C19.7791915,21.3823525 20.4585814,20.7077583 21.2967403,20.7077583 L45.1161678,20.7077583 C45.9543267,20.7077583 46.6339885,21.3818127 46.6345322,22.2137349 Z" id="路径" fill="#F6FAFE"></path>
                <path d="M48,27.5608882 C48,27.9803926 47.8322385,28.3827406 47.5334801,28.6794548 C47.2347556,28.9762059 46.8294427,29.1429134 46.4068184,29.1428571 L42.005981,29.1428571 C41.1257374,29.1428571 40.4124731,28.4345845 40.4124731,27.561158 C40.4124731,26.6876236 41.1256831,25.979351 42.005981,25.979351 L46.4068184,25.979351 C46.8292961,25.979351 47.2345377,26.1460161 47.5334801,26.4424295 C47.832136,26.7391676 48,27.1414388 48,27.5608882 Z" id="路径" fill="#F6FAFE"></path>
                <path d="M39.199739,27.5608882 C39.199739,28.4348004 38.139956,29.1428571 36.8296767,29.1428571 L6.3683767,29.1428571 C5.06043553,29.1428571 4,28.435502 4,27.5608882 C4,26.6872998 5.06038115,25.979351 6.3683767,25.979351 L36.8296767,25.979351 C38.139956,25.979405 39.199739,26.6873537 39.199739,27.5608882 L39.199739,27.5608882 Z" id="路径" fill="#F6FAFE"></path>
                <path d="M29.7599231,33.8616572 C29.7599231,34.3556597 29.568014,34.8294545 29.2264028,35.178964 C28.884604,35.528287 28.4210164,35.7245378 27.9376289,35.7245378 L1.82228747,35.7245378 C1.17136563,35.724466 0.569901144,35.3695945 0.244362484,34.7935424 C-0.0814541614,34.2174578 -0.0814541614,33.5074137 0.244362484,32.9313291 C0.569744231,32.355073 1.17127122,32.0000374 1.82228747,32 L27.9376289,32 C28.4208719,31.9999219 28.8843481,32.1960539 29.2260763,32.5452402 C29.5679234,32.8942521 29.7599231,33.3678362 29.7599231,33.8616572 L29.7599231,33.8616572 Z M53.1428571,40.4402948 C53.1425307,41.4593738 52.334442,42.2853806 51.3372134,42.2857143 L29.5918955,42.2857143 C28.6128409,42.259634 27.8327749,41.4409675 27.8327749,40.4402948 C27.8327749,39.4395665 28.6128409,38.6210668 29.5918955,38.5948752 L51.3366693,38.5948752 C52.3338434,38.5954313 53.1422586,39.4212713 53.1428571,40.4402948 L53.1428571,40.4402948 Z" id="形状" fill="#F6FAFE"></path>
                <path d="M49.830269,46.0001192 C49.830269,46.3793038 49.692425,46.7429441 49.4470308,47.0109244 C49.201537,47.2785486 48.8689408,47.4287541 48.5222464,47.4285713 L24.163691,47.4285713 C23.4421025,47.4285713 22.8571429,46.7890273 22.8571429,46.0001192 C22.8571429,45.2112112 23.4421025,44.5714286 24.163691,44.5714286 L48.522301,44.5714286 C49.2447086,44.5714286 49.830269,45.210853 49.830269,46.0001192 Z M54.8571429,46.0001192 C54.8571429,46.7886691 54.2724563,47.4282129 53.5508677,47.4285711 L52.5075842,47.4285711 C51.785668,47.4285711 51.2007083,46.7890273 51.2007083,46.0001192 C51.2007083,45.2112112 51.785668,44.5714286 52.5075842,44.5714286 L53.5508131,44.5714286 C54.2715825,44.5714286 54.8571429,45.210853 54.8571429,46.0001192 Z" id="形状" fill="#F6FAFE"></path>
                <g id="项目云盘" transform="translate(14.508929, 14.857143)">
                    <path d="M4.01785714,3.9642857 L24.1071429,3.9642857 C24.7098214,3.9642857 25.1116071,4.3660714 25.1116071,4.96875 L25.1116071,20.0357143 L3.01339287,20.0357143 L3.01339287,4.96875 C3.01339287,4.36607143 3.41517857,3.9642857 4.01785714,3.9642857 Z" id="路径" fill="#E2F1FF" fill-rule="nonzero"></path>
                    <rect id="矩形" fill="#E2F1FF" x="4.91964286" y="0" width="18.2857143" height="1.71428571"></rect>
                    <path d="M1.50669643,10.9955357 L7.83482143,10.9955357 L9.74330357,15.4151786 L18.28125,15.4151786 L20.5915179,10.9955357 L26.6183036,10.9955357 C27.421875,10.9955357 28.125,11.6986607 28.125,12.5022321 L28.125,24.5558036 C28.125,25.359375 27.421875,26.0625 26.6183036,26.0625 L1.50669643,26.0625 C0.703125,26.0625 0,25.359375 0,24.5558036 L0,12.5022321 C0.100446433,11.6986607 0.703125,10.9955357 1.50669643,10.9955357 Z" id="路径" stroke="#A5D2FF" stroke-width="0.571428571" fill="#FFFFFF" fill-rule="nonzero"></path>
                    <rect id="矩形" fill="#EDF6FF" x="4.91964286" y="20" width="18.2857143" height="1.71428571"></rect>
                </g>
                <path d="M25.2125714,24.5714286 L25.2125714,22.7817143 L25.2262857,22.7817143 L26.4502857,24.5714286 L26.8411429,24.5714286 L26.8411429,22.1234286 L26.4365714,22.1234286 L26.4365714,23.8891429 L26.4228571,23.8891429 L25.2125714,22.1234286 L24.8114286,22.1234286 L24.8114286,24.5714286 L25.2125714,24.5714286 Z M28.3394286,24.6194286 C28.6617143,24.6194286 28.912,24.5371429 29.0902857,24.3725714 C29.2685714,24.2034286 29.3577143,23.96 29.3577143,23.6422857 L29.3577143,23.6422857 L29.3577143,22.1234286 L28.9565714,22.1234286 L28.9565714,23.6491429 C28.9565714,23.8571429 28.9074286,24.0137143 28.8091429,24.1188571 C28.7085714,24.2194286 28.552,24.2697143 28.3394286,24.2697143 C28.1222857,24.2697143 27.9657143,24.2194286 27.8697143,24.1188571 C27.7714286,24.0182857 27.7222857,23.8617143 27.7222857,23.6491429 L27.7222857,23.6491429 L27.7222857,22.1234286 L27.3211429,22.1234286 L27.3211429,23.6422857 C27.3211429,23.96 27.4114286,24.2045714 27.592,24.376 C27.7657143,24.5382857 28.0148571,24.6194286 28.3394286,24.6194286 Z M31.5588571,24.5714286 L31.5588571,24.2285714 L30.2354286,24.2285714 L30.2354286,22.1234286 L29.8377143,22.1234286 L29.8377143,24.5714286 L31.5588571,24.5714286 Z M33.5885714,24.5714286 L33.5885714,24.2285714 L32.2651429,24.2285714 L32.2651429,22.1234286 L31.8674286,22.1234286 L31.8674286,24.5714286 L33.5885714,24.5714286 Z" id="NULL" fill="#65A4E2" fill-rule="nonzero"></path>
            </g>
        </g>
    </g>
</svg>
